X:133
T:Haul Away, Boys, Haul Away
M:C|
L:1/4
Q:1/4=3D120
K:G
d|\
BG BG/G/|BA A/F/D|A>A AG|BA Ad|
BG BG   |EG E/E/D|G>A Bd|BA G ||
